X:2
T:The Mortgage Burn
C:Gordon MacLean
R:Reel
M:C|
K:A
AB|:"A"cEBE AEFE | "A"cEBE AEFA | "Bm"BFBc BFBc | "E"dBcA BAFA |
"A"cEBE AEFE | "A"cEBE AEFA | "Bm"dBcA BAFE | "E"FAAB "A"A2 AB:|
"A"c2 Bc e2 ce | "D"fafe "A"c2 BA | "Bm"B2 AB "A"c2 Bc | "E"ecBA "D/E"F2 AB |
"A"c2 Bc e2 ce | "D"fafe "A"c2 BA | "Bm"B2 AB "D"cBAF  |"E"EAAB "A"A2 AB|
"A"c2 Bc e2 ce | "D"fafe "A"c2 BA | "Bm"B2 AB "A"c2 Bc | "D"ecBA "E"F2 cB |
"A"AFEF A2 AB |cBce "D"f2 af |"A"e2 cA "Bm"BcAF|"E"EAAB "A"A2|]

#include "LeftHeader.h"
% %footer 03/27/19 For use only by Roaring Jelly members
% %text Set 140 NEFFA 2019
% %scale .75
$SmallLMargin
$SmallRMargin
